X:10
T:Vals ur Vetlandasamlingen
T:(M39-10)
R:Vals
O:Vetlanda, Småland
N:SMUS M39
N:ca 1850
B:Vetlandasamlingen
Z:Till abc Jonas Brunskog
M:3/8
L:1/8
Q:1/4=70
K:G
d|gf/e/d/c/|BGB/c/|AGA/c/|BGB/d/|gf/e/d/c/|BGB/d/|e/d/c/d/e/f/|g2:|
d|AFA/c/|BGB/d/|AFA/c/|BGB/d/|gf/e/d/c/|BGB/d/|e/d/c/d/e/f/|g2:|

